X: 4
T: The Geese In The Bog
R: jig
M: 6/8
L: 1/8
K: Amin
|:cEE GEE|cEE GEE|cEE GED| EAA A2B|cEE GEE|cEE GEE|cBA GED| EAA A2B:|cde ged| eaa ged|cde ged| eaa a2B|cde ged| eaa ged| cBA GED| EAA A2B:|


Tune 43	Setting 12461

